public/docklogo.svg

<svg width="120" height="40" viewBox="0 0 120 40" fill="none" xmlns="http://www.w3.org/2000/svg">
<path fill-rule="evenodd" clip-rule="evenodd" d="M48.3874 9.44321C51.2682 9.44321 53.829 10.0875 56.123 11.3761C58.417 12.6647 60.1775 14.4365 61.5112 16.7989C62.7916 19.1076 63.4318 21.7385 63.4318 24.6915C63.4318 27.5909 62.7916 30.2217 61.5112 32.5305C60.2308 34.8392 58.4703 36.6647 56.1763 37.9533C53.8823 39.2419 51.2682 39.8862 48.3874 39.8862C45.5066 39.8862 42.8925 39.2419 40.5985 37.9533C38.3045 36.611 36.5439 34.8392 35.2636 32.5305C33.9832 30.2217 33.343 27.5909 33.343 24.6915C33.343 21.7385 33.9832 19.1076 35.2636 16.7989C36.5439 14.4902 38.3045 12.6647 40.5985 11.3761C42.8925 10.0875 45.5066 9.44321 48.3874 9.44321ZM53.4021 33.6072C54.8425 32.7481 56.0162 31.5132 56.8165 29.9562C57.67 28.3991 58.0435 26.6273 58.0435 24.6407C58.0435 22.6542 57.6167 20.8824 56.8165 19.3253C56.0162 17.7683 54.8959 16.5334 53.4021 15.6743C51.9617 14.7615 50.2545 14.332 48.4407 14.332C46.6268 14.332 44.973 14.8152 43.4792 15.6743C41.9855 16.5334 40.8652 17.7683 40.0116 19.3253C39.2113 20.8824 38.7845 22.6542 38.7845 24.6407C38.7845 26.6273 39.158 28.3991 40.0116 29.9562C40.8652 31.5132 41.9855 32.7481 43.4792 33.6072C44.9197 34.5199 46.6268 34.9495 48.4407 34.9495C50.2545 34.9495 51.9617 34.4662 53.4021 33.6072Z" fill="#18181B"/>
<path d="M81.0903 14.3331C82.4773 14.3331 83.7043 14.5478 84.7713 15.0311C85.8383 15.5143 86.8519 16.2123 87.7589 17.1787C88.3457 17.823 89.0392 18.1451 89.8928 18.1451C90.373 18.1451 90.7997 18.0378 91.1198 17.7693C91.9201 17.2324 92.2935 16.5344 92.2935 15.729C92.2935 15.1921 92.1335 14.7089 91.76 14.2794C88.9325 11.0042 85.3582 9.33978 81.0903 9.33978C78.2628 9.33978 75.702 9.98408 73.4614 11.2727C71.2207 12.5613 69.4602 14.3868 68.1798 16.6955C66.9528 19.0042 66.3126 21.6351 66.3126 24.5881C66.3126 27.4337 66.9528 30.0109 68.2332 32.3733C69.5136 34.6821 71.3274 36.5076 73.6214 37.8498C75.9154 39.1921 78.4762 39.8364 81.357 39.8364C85.3048 39.8364 88.5591 38.6015 91.1732 36.1854C91.6 35.7559 91.8134 35.2727 91.8134 34.6821C91.8134 33.9304 91.4933 33.2861 90.7997 32.6955C90.373 32.3733 89.8928 32.2123 89.3593 32.2123C88.7191 32.2123 88.0256 32.4807 87.3321 32.9639C85.785 34.2525 83.811 34.8968 81.357 34.8968C79.4898 34.8968 77.7826 34.4673 76.3422 33.5545C74.8484 32.6955 73.7281 31.4606 72.9279 29.9035C72.1276 28.3465 71.7009 26.5747 71.7009 24.5881C71.7009 21.474 72.5544 19.0042 74.315 17.125C76.0221 15.2995 78.2628 14.3331 81.0903 14.3331Z" fill="#18181B"/>
<path d="M118.701 35.651L108.138 22.604L118.168 13.6376C118.755 13.1544 119.021 12.5638 119.021 11.7584C119.021 11.1141 118.808 10.5235 118.328 10.0403C117.848 9.44967 117.261 9.18121 116.461 9.18121C115.82 9.18121 115.234 9.39597 114.753 9.8792L101.523 21.7987V2.68456C101.523 1.87919 101.256 1.2349 100.776 0.751678C100.296 0.268456 99.6557 0 98.8555 0C98.0552 0 97.415 0.268456 96.9349 0.751678C96.4548 1.2349 96.188 1.87919 96.188 2.68456V36.9396C96.188 37.745 96.4548 38.3893 96.9349 38.8725C97.415 39.3557 98.0552 39.6242 98.8555 39.6242C99.6557 39.6242 100.296 39.3557 100.776 38.8725C101.256 38.3893 101.523 37.745 101.523 36.9396V28.5638L104.244 26.1477L114.593 39.0336C115.127 39.6779 115.767 40 116.567 40C117.207 40 117.741 39.7852 118.328 39.3557C118.968 38.8188 119.288 38.1208 119.288 37.3154C119.288 36.6711 119.075 36.1342 118.701 35.651Z" fill="#18181B"/>
<path d="M27.2613 0C26.461 0 25.8208 0.268456 25.2874 0.751678C24.7539 1.28859 24.4871 1.93289 24.4871 2.79195V14.3893V18.6309C24.4871 18.6309 24.4871 20.2953 24.4871 22.0671H24.4338C24.4338 22.1208 24.4338 22.1745 24.4871 22.2282C24.4871 22.7114 24.4871 23.1946 24.4871 23.6779C24.4871 27.3289 24.3804 29.6913 21.2328 32.698C20.8594 33.0201 20.4326 33.2886 20.0058 33.5571C18.5121 34.4698 16.9116 34.8993 15.0977 34.8993C13.2839 34.8993 11.6301 34.4698 10.1896 33.5571C8.69586 32.6443 7.57554 31.4094 6.72196 29.8524C5.86837 28.2953 5.44158 26.5235 5.44158 24.5906C5.44158 22.6577 5.86837 20.8859 6.72196 19.3289C7.57554 17.7718 8.74921 16.5369 10.1896 15.6779C11.5234 14.8725 12.9638 14.443 14.5109 14.3356L12.5903 16.2685C11.5767 17.2886 11.5767 19.0067 12.5903 20.0805C13.604 21.1007 15.3111 21.1007 16.3781 20.0805L22.6733 13.745C23.6869 12.7248 23.6869 11.0067 22.6733 9.93289L16.3247 3.59732C15.3111 2.57718 13.604 2.57718 12.537 3.59732C11.5234 4.61745 11.5234 6.33557 12.537 7.4094L14.5642 9.44967C14.3508 9.44967 14.1908 9.44967 13.9774 9.44967C11.3633 9.44967 9.01596 10.094 6.882 11.4362C4.74805 12.7785 3.09423 14.5503 1.86721 16.9128C0.586837 19.1678 0 21.745 0 24.5906C0 27.4362 0.640186 30.0134 1.97391 32.3758C3.30763 34.6846 5.06814 36.5101 7.41549 37.8524C9.70949 39.1946 12.2702 39.8389 15.0444 39.8389C17.8185 39.8389 20.3793 39.1946 22.6199 37.8524C24.9139 36.5101 26.6744 34.6846 28.0081 32.3758C29.3419 30.0671 29.9821 27.4899 29.9821 24.5906V2.79195C29.9821 1.93289 29.7153 1.28859 29.2352 0.751678C28.755 0.268456 28.0615 0 27.2613 0Z" fill="#18181B"/>
</svg>

<svg width="30" height="40" viewBox="0 0 30 40" fill="none" xmlns="http://www.w3.org/2000/svg">
  <path d="M27.261 0c-.8 0-1.44.268-1.974.752-.533.537-.8 1.18-.8 2.04v19.275h-.053c0 .054 0 .107.053.161v1.45c0 3.65-.107 6.013-3.254 9.02-.374.322-.8.59-1.227.86-1.494.912-3.094 1.341-4.908 1.341-1.814 0-3.468-.43-4.908-1.342-1.494-.913-2.614-2.148-3.468-3.705-.854-1.557-1.28-3.329-1.28-5.261 0-1.933.426-3.705 1.28-5.262.854-1.557 2.027-2.792 3.468-3.651 1.333-.806 2.774-1.235 4.32-1.342l-1.92 1.932c-1.013 1.02-1.013 2.739 0 3.813 1.014 1.02 2.721 1.02 3.788 0l6.295-6.336c1.014-1.02 1.014-2.738 0-3.812l-6.348-6.336c-1.014-1.02-2.721-1.02-3.788 0-1.014 1.02-1.014 2.739 0 3.812l2.027 2.04h-.587c-2.614 0-4.961.645-7.095 1.987-2.134 1.342-3.788 3.114-5.015 5.477C.587 19.168 0 21.745 0 24.59c0 2.845.64 5.422 1.974 7.785 1.334 2.309 3.094 4.134 5.441 5.476 2.294 1.343 4.855 1.987 7.63 1.987 2.774 0 5.334-.644 7.575-1.987 2.294-1.342 4.054-3.167 5.388-5.476 1.334-2.309 1.974-4.886 1.974-7.785V2.79c0-.858-.267-1.502-.747-2.04-.48-.481-1.174-.75-1.974-.75Z" fill="#18181B"/>
</svg>
